X: 20756
T: MC. GREGOR'S REEL
C:
N: AKA Timour the Tartar, Peter Street, Blanchard Races, ...
%R: reel
B: Elias Howe "The Musician's Companion" 1843 p.75 #4
S: http://imslp.org/wiki/The_Musician's_Companion_(Howe,_Elias)
Z: 2015 John Chambers <jc:trillian.mit.edu>
M: 2/4
L: 1/16
K: A
% - - - - - - - - - - - - - - - - - - - - - - - - -
|:\
(A2(3cBA) eA (3(cBA) | eAaA gAfA | eA (3(cBA) eAfA | BEcE dEBE |\
(A2(3cBA) eA (3(cBA) | eAaA gAfA | eaec eaec | BABc A4 :|
|:\
(D2(3GFE) BE (3(GFE) | BEdE cEBE | A2(3(cBA) eA (3(cBA) | eAaA gAfA |\
e^dec agaf | e^dec agaf | ecag fedc | BAGF EFG"^D.C."E :|
% - - - - - - - - - - - - - - - - - - - - - - - - -

%%sep 1 1 500

